packages/axiom-materials/src/icon_svgs/copy.svg

<svg height="16" viewBox="0 0 16 16" width="16" xmlns="http://www.w3.org/2000/svg"><g fill-rule="evenodd"><path d="m2 5v9h1 1 7v-2h-7v-7z"/><path d="m14 9v2h-2v-1h1v-1zm-8 0v1h1v1h-2v-2zm5 1v1h-3v-1zm-5-5v3h-1v-3zm8 0v3h-1v-3zm-7-3v1h-1v1h-1v-2zm7 0v2h-1v-1h-1v-1zm-3 0v1h-3v-1z" transform="matrix(1 0 0 -1 0 13)"/></g></svg>

<svg xmlns="http://www.w3.org/2000/svg" width="16" height="16" viewBox="0 0 16 16">
  <g fill="#000000" fill-rule="evenodd">
    <polygon points="2 5 2 14 3 14 4 14 11 14 11 12 4 12 4 5"/>
    <path d="M14,9 L14,11 L12,11 L12,10 L13,10 L13,9 L14,9 Z M6,9 L6,10 L7,10 L7,11 L5,11 L5,9 L6,9 Z M11,10 L11,11 L8,11 L8,10 L11,10 Z M6,5 L6,8 L5,8 L5,5 L6,5 Z M14,5 L14,8 L13,8 L13,5 L14,5 Z M7,2 L7,3 L6,3 L6,4 L5,4 L5,2 L7,2 Z M14,2 L14,4 L13,4 L13,3 L12,3 L12,2 L14,2 Z M11,2 L11,3 L8,3 L8,2 L11,2 Z" transform="matrix(1 0 0 -1 0 13)"/>
  </g>
</svg>
